svg/24/logo-visual-studio-code.svg

<svg width="24" height="24" viewBox="0 0 24 24" fill="currentColor" xmlns="http://www.w3.org/2000/svg"><path fill-rule="evenodd" clip-rule="evenodd" d="M16.6252 21.9484C16.4699 21.9487 16.3156 21.9198 16.1707 21.8634C16.0132 21.802 15.8668 21.7081 15.7421 21.5833L7.8648 14.3967L4.43783 16.998C4.28708 17.1125 4.10799 17.1685 3.92968 17.1675C3.92751 17.1675 3.92533 17.1675 3.92315 17.1675C3.72151 17.1676 3.52046 17.0948 3.36215 16.9508L2.26089 15.949C1.89777 15.6187 1.89735 15.0474 2.25999 14.7166L5.2377 12L2.25999 9.28334C1.89735 8.9525 1.89777 8.38124 2.26089 8.05092L3.36215 7.04916C3.51856 6.9069 3.71667 6.83406 3.91587 6.83248C3.92018 6.83244 3.92449 6.83243 3.9288 6.83246C4.1074 6.83121 4.28684 6.88725 4.43783 7.00186L7.8648 9.60322L15.7421 2.41663C15.7888 2.36984 15.8387 2.32737 15.891 2.28934C16.1068 2.13247 16.3649 2.05096 16.626 2.05153C16.6286 2.05152 16.6312 2.05151 16.6338 2.05151C16.8172 2.05128 17.0021 2.09156 17.1749 2.17469L21.2926 4.1561C21.5861 4.29732 21.8071 4.54422 21.9189 4.83838C21.929 4.86513 21.9383 4.89226 21.9466 4.91974C21.9818 5.03562 22.0004 5.15768 22.0004 5.2826V18.7174C22.0004 18.8571 21.9772 18.9932 21.9335 19.121C21.9225 19.1532 21.9102 19.1849 21.8967 19.216C21.7792 19.4861 21.5677 19.7115 21.2926 19.8439L17.1749 21.8252C17.0054 21.9068 16.8243 21.9471 16.6443 21.9484C16.638 21.9484 16.6316 21.9484 16.6252 21.9484ZM16.9913 7.46891L11.0222 12L16.9913 16.531V7.46891Z"/></svg>

<svg xmlns="http://www.w3.org/2000/svg" width="24" height="24" fill="currentColor" viewBox="0 0 24 24">
  <path fill-rule="evenodd" d="M16.625 21.949a1.247 1.247 0 0 1-.883-.366l-7.877-7.186-3.427 2.601a.83.83 0 0 1-.508.17h-.007a.831.831 0 0 1-.56-.217L2.26 15.949a.834.834 0 0 1-.001-1.232L5.238 12 2.26 9.284a.834.834 0 0 1 0-1.233L3.363 7.05a.831.831 0 0 1 .567-.216.83.83 0 0 1 .509.17l3.427 2.6 7.877-7.186a1.244 1.244 0 0 1 .884-.365h.008c.183 0 .368.04.54.123l4.119 1.981A1.25 1.25 0 0 1 22 5.283v13.435a1.248 1.248 0 0 1-.707 1.126l-4.118 1.982a1.26 1.26 0 0 1-.53.123h-.02Zm.366-14.48L11.022 12l5.97 4.531V7.47Z" clip-rule="evenodd"/>
</svg>
